X:47
T:Here I Am amongst You
R:song
Z:id:hn-song-47
M:2/4
L:1/8
K:Dmix
P:verse 1
D>E FG | AG FG | AD DA, | C3D/D/ |
D>E FG | AG FG | AD EC |[M:3/4] DE =F2 ||
zG/G/ |[M:2/4] AG GG/G/ | AD DA, | C4 |
D>E =FG/G/ | AG GG/G/ | AD E/D/C | D4 ||
P:verse 2-4
A/A/A/A/ GG/G/ | AA GG/G/ | AD DA, | C3C |
DD/D/ =FG | AG GG/G/ | AD EC |[M:3/4] DE =F2 ||
zG/G/ |[M:2/4] AG GG/G/ | AD DA, | C4 |
D>E =FG/G/ | AG GG/G/ | AD E/D/C | D4 ||
W:Here I am amongst you,
W:And I'm here because I'm here.
W:And I'm only twelve months older
W:Than I was this time last year, i-ya.
W:Chorus:
W:Diddle doo rye-ya diddle doo rum diddle dum day
W:Ridle dum diddle doo rye-ya diddle doo rum diddle dum day
W:
W:Oh, never throw a brick to a drowning man,
W:If you're near to a grocer's store,
W:Just throw him a cake of Sunlight soap,
W:For to wash himself ashore, i-ya.
W:Chorus...
W:
W:Oh, the more a man has, the more a man wants,
W:The same I don't think true,
W:For I never met a man with one black eye,
W:Who wished that he had two, ri-ya.
W:Chorus...
W:
W:It's early to bed, and early to rise,
W:The same I don't think true.
W:For how in the hell can a man go to bed
W:When he has none to go to, ri-ya.
W:Chorus...

